!!!COM: Anonymous
!!!OTL@@LAT: Da pacem Domine
!!!TXO: Latin
!!!ODT: 
!!!GTL: Hymnbook L 1642
!!!ARL: Biblioteka Diecezjalna w Sandomierzu 
!!!voices:	4
**kern	**text	**kern	**text	**kern	**text	**kern	**text
*staff4	*staff4	*staff3	*staff3	*staff2	*staff2	*staff1	*staff1
*I"Basso	*	*I"Canto III	*	*I"Canto II	*	*I"Canto I	*
=1-	=1-	=1-	=1-	=1-	=1-	=1-	=1-
*clefF4	*	*clefG2	*	*clefG2	*	*clefG2	*
*k[]	*	*k[]	*	*k[]	*	*k[]	*
*met(c|)	*	*met(c|)	*	*met(c|)	*	*met(c|)	*
*M2/2	*	*M2/2	*	*M2/2	*	*M2/2	*
1AA	Da	1e	Da	1a	Da	1a	Da
=2	=2	=2	=2	=2	=2	=2	=2
2E\	pa-	2e/	pa-	2g#/	pa-	2b\	pa-
2AA/	-cem	2e/	-cem	2a/	-cem	2cc\	-cem
=3	=3	=3	=3	=3	=3	=3	=3
2.E\	Do-	2.e/	Do-	2.g#i/	Do-	2.b\	Do-
4E\	-mi-	4e/	-mi-	4g#/	-mi-	4b\	-mi-
=4	=4	=4	=4	=4	=4	=4	=4
1AA	-ne	1e	-ne	1a	-ne	1a	-ne
=5	=5	=5	=5	=5	=5	=5	=5
1AA	da	1e	da	1a	da	1cc	da
=6	=6	=6	=6	=6	=6	=6	=6
2GG/	pa-	2g/	pa-	2b\	pa-	2dd\	pa-
2C/	-cem	2g/	-cem	2cc\	-cem	2ee\	-cem
=7	=7	=7	=7	=7	=7	=7	=7
(1GG	Do-	[1g	Do-	2b\	Do-	2dd\	Do-
.	.	.	.	2cc\	.	2ee\	.
=8	=8	=8	=8	=8	=8	=8	=8
2.GG/)	.	2.g/]	.	2.b\	.	2.dd\	.
4GG/	-mi-	4g/	-mi-	4b\	-mi-	4dd\	-mi-
=9	=9	=9	=9	=9	=9	=9	=9
1C	-ne	1g	-ne	1cc	-ne	1cc	-ne
=10	=10	=10	=10	=10	=10	=10	=10
1C	pa-	1g	pa-	1cc	pa-	1ee	pa-
=11	=11	=11	=11	=11	=11	=11	=11
2GG/	-cem	2g/	-cem	2b\	-cem	2dd\	-cem
2AA/	da	2e/	da	2a/	da	2cc\	da
=12	=12	=12	=12	=12	=12	=12	=12
2.E\	Do-	2.e/	Do-	2.g#/	Do-	2.b\	Do-
4E\	-mi-	4e/	-mi-	4g#/	-mi-	4b\	-mi-
=13	=13	=13	=13	=13	=13	=13	=13
1E	-ne	1e	-ne	1g#i	-ne	1b	-ne
=14	=14	=14	=14	=14	=14	=14	=14
1r	.	1r	.	2cc\	pa-	2ee\	pa-
.	.	.	.	2a/	-cem	2cc\	-cem
=15	=15	=15	=15	=15	=15	=15	=15
2C/	pa-	2g/	pa-	1r	.	1r	.
2C/	-cem	2e/	-cem	.	.	.	.
=16	=16	=16	=16	=16	=16	=16	=16
1r	.	1r	.	2cc\	pa-	2ee\	pa-
.	.	.	.	2a/	-cem	2cc\	-cem
=17	=17	=17	=17	=17	=17	=17	=17
2C/	pa-	2g/	pa-	1r	.	1r	.
2C/	-cem	2e/	-cem	.	.	.	.
=18	=18	=18	=18	=18	=18	=18	=18
1r	.	1r	.	1cc	da	1ee	da
=19	=19	=19	=19	=19	=19	=19	=19
1r	.	1r	.	2b\	pa-	2dd\	pa-
.	.	.	.	2a/	-cem	2cc\	-cem
=20	=20	=20	=20	=20	=20	=20	=20
1r	.	1r	.	2.g#/	Do-	2.b\	Do-
.	.	.	.	4g#/	-mi-	4b\	-mi-
=21	=21	=21	=21	=21	=21	=21	=21
1r	.	1r	.	1g#i	-ne	1b	-ne
=22	=22	=22	=22	=22	=22	=22	=22
1r	.	1r	.	2.a/	in	2.cc\	in
.	.	.	.	4b\	di-	4dd\	di-
=23	=23	=23	=23	=23	=23	=23	=23
1r	.	1r	.	2cc\	-e-	2ee\	-e-
.	.	.	.	4dd\	-bus-	4ff\	-bus-
.	.	.	.	4cc\	.	4ee\	.
=24	=24	=24	=24	=24	=24	=24	=24
1r	.	1r	.	1b	-no-	1dd	-no-
=25	=25	=25	=25	=25	=25	=25	=25
1r	.	1r	.	1cc	-stris	1cc	-stris
=26	=26	=26	=26	=26	=26	=26	=26
2.GG/	in	1r	.	2.b\	in	2.dd\	in
4AA/	di-	.	.	4a/	di-	4cc\	di-
=27	=27	=27	=27	=27	=27	=27	=27
2BB/	-e-	1r	.	2g/	-e-	2b\	-e-
2C/	-bus	.	.	2g/	-bus	4cc\	-bus
.	.	.	.	.	.	4b\	.
=28	=28	=28	=28	=28	=28	=28	=28
1D	no-	1r	.	1f#	no-	1a	no-
=29	=29	=29	=29	=29	=29	=29	=29
1GG	-stris	1r	.	1g	-stris	1g	-stris
=30	=30	=30	=30	=30	=30	=30	=30
2.C/	in	2.cc\	in	2.ee\	in	2.gg\	in
4D\	di-	4b\	di-	4dd\	di-	4ff\	di-
=31	=31	=31	=31	=31	=31	=31	=31
2E\	-e-	2a/	-e-	2cc\	-e-	2ee\	-e-
2F\	-bus	2a/	-bus	2cc\	-bus	4ff\	-bus
.	.	.	.	.	.	4ee\	.
=32	=32	=32	=32	=32	=32	=32	=32
1G	no-	1g	no-	1b	no-	1dd	no-
=33	=33	=33	=33	=33	=33	=33	=33
1C	-stris	1g	-stris	1cc	-stris	1cc	-stris
=34	=34	=34	=34	=34	=34	=34	=34
=	=	=	=	=	=	=	=
1r	.	1r	.	4a/	Qui-	4cc\	Qui-
.	.	.	.	4a/	-a	4cc\	-a
.	.	.	.	4b\	non	4dd\	non
.	.	.	.	4b\	est	4dd\	est
=35	=35	=35	=35	=35	=35	=35	=35
1r	.	1r	.	4cc\	al-	4ee\	al-
.	.	.	.	4cc\	-i-	4ee\	-i-
.	.	.	.	2b\	-us	2dd\	-us
=36	=36	=36	=36	=36	=36	=36	=36
4C/	Qui-	4e/	Qui-	1r	.	1r	.
4C/	-a	4e/	-a	.	.	.	.
4GG/	non	4d/	non	.	.	.	.
4GG/	est	4d/	est	.	.	.	.
=37	=37	=37	=37	=37	=37	=37	=37
4C/	al-	4e/	al-	1r	.	1r	.
4C/	-i-	4e/	-i-	.	.	.	.
2GG/	-us	2d/	-us	.	.	.	.
=38	=38	=38	=38	=38	=38	=38	=38
1r	.	1r	.	4a/	qui-	4cc\	qui-
.	.	.	.	4a/	-a	4cc\	-a
.	.	.	.	4b\	non	4dd\	non
.	.	.	.	4b\	est	4dd\	est
=39	=39	=39	=39	=39	=39	=39	=39
1r	.	1r	.	4cc\	al-	4ee\	al-
.	.	.	.	4cc\	-i-	4ee\	-i-
.	.	.	.	2b\	-us	2dd\	-us
=40	=40	=40	=40	=40	=40	=40	=40
4C/	qui-	4e/	qui-	1r	.	1r	.
4C/	-a	4e/	-a	.	.	.	.
4GG/	non	4d/	non	.	.	.	.
4GG/	est	4d/	est	.	.	.	.
=41	=41	=41	=41	=41	=41	=41	=41
4C/	al-	4e/	al-	1r	.	1r	.
4C/	-i-	4e/	-i-	.	.	.	.
2GG/	-us	2d/	-us	.	.	.	.
=42	=42	=42	=42	=42	=42	=42	=42
1r	.	1r	.	4a/	qui-	4cc\	qui-
.	.	.	.	4a/	-a	4cc\	-a
.	.	.	.	4b\	non	4dd\	non
.	.	.	.	4b\	est	4dd\	est
=43	=43	=43	=43	=43	=43	=43	=43
1r	.	1r	.	4cc\	al-	4ee\	al-
.	.	.	.	4cc\	-i-	4ee\	-i-
.	.	.	.	2b\	-us	2dd\	-us
=44	=44	=44	=44	=44	=44	=44	=44
2.C/	qui	2.cc\	qui	2.ee\	qui	2.gg\	qui
4C/	pu-	4cc\	pu-	4ee\	pu-	4gg\	pu-
=45	=45	=45	=45	=45	=45	=45	=45
2D\	-gnet	2a/	-gnet	2dd\	-gnet	2ff\	-gnet
2E\	pro	2cc\	pro	2cc\	pro	2ee\	pro
=46	=46	=46	=46	=46	=46	=46	=46
1G	no-	1g	no-	1b	no-	1dd	no-
=47	=47	=47	=47	=47	=47	=47	=47
1C	-bis	1g	-bis	1cc	-bis	1cc	-bis
=48	=48	=48	=48	=48	=48	=48	=48
2.C/	qui	2.g/	qui	2.cc\	qui	2.ee\	qui
4C/	pu-	4g/	pu-	4cc\	pu-	4ee\	pu-
=49	=49	=49	=49	=49	=49	=49	=49
2GG/	-gnet	2g/	-gnet	2b\	-gnet	2dd\	-gnet
2AA/	pro	2e/	pro	[2a/	pro	2cc\	pro
=50	=50	=50	=50	=50	=50	=50	=50
1E	no-	1e	no-	2a/]	.	1b	no-
.	.	.	.	2g#/	no-	.	.
=51	=51	=51	=51	=51	=51	=51	=51
1AA	-bis	1e	-bis	1a	-bis	1a	-bis
=52	=52	=52	=52	=52	=52	=52	=52
1r	.	1r	.	2g#/	Ni-	2b\	Ni-
.	.	.	.	4g#/	-si	4b\	-si
.	.	.	.	4g#/	tu	4b\	tu
=53	=53	=53	=53	=53	=53	=53	=53
1r	.	1r	.	2a/	De-	2cc\	De-
.	.	.	.	2g#i/	-us	2b\	-us
=54	=54	=54	=54	=54	=54	=54	=54
2E\	Ni-	2b\	Ni-	1r	.	1r	.
4E\	-si	4b\	-si	.	.	.	.
4E\	tu	4b\	tu	.	.	.	.
=55	=55	=55	=55	=55	=55	=55	=55
2A\	De-	2cc\	De-	1r	.	1r	.
2E\	-us	2b\	-us	.	.	.	.
=56	=56	=56	=56	=56	=56	=56	=56
1r	.	1r	.	2g#/	ni-	2b\	ni-
.	.	.	.	4g#/	-si	4b\	-si
.	.	.	.	4g#/	tu	4b\	tu
=57	=57	=57	=57	=57	=57	=57	=57
1r	.	1r	.	2a/	De-	2cc\	De-
.	.	.	.	2g#i/	-us	2b\	-us
=58	=58	=58	=58	=58	=58	=58	=58
2GG/	ni-	2g/	ni-	2b\	ni-	2dd\	ni-
4GG/	-si	4g/	-si	4b\	-si	4dd\	-si
4GG/	tu	4g/	tu	4b\	tu	4dd\	tu
=59	=59	=59	=59	=59	=59	=59	=59
2AA/	De-	2e/	De-	2a/	De-	2cc\	De-
2BB/	-us	2g/	-us	2g/	-us	2b\	-us
=60	=60	=60	=60	=60	=60	=60	=60
1D	no-	1d	no-	1f#	no-	1a	no-
=61	=61	=61	=61	=61	=61	=61	=61
1GG	-ster	1d	-ster	1g	-ster	1g	-ster
=62	=62	=62	=62	=62	=62	=62	=62
2AA/	ni-	1r	.	2a/	ni-	2cc\	ni-
4AA/	-si	.	.	4a/	-si	4cc\	-si
4AA/	tu	.	.	4a/	tu	4cc\	tu
=63	=63	=63	=63	=63	=63	=63	=63
2GG/	De-	1r	.	2b\	De-	2dd\	De-
2C/	-us	.	.	2cc\	-us	2ee\	-us
=64	=64	=64	=64	=64	=64	=64	=64
2D\	no-	1r	.	2dd\	no-	2ff\	no-
2E\	.	.	.	2cc\	.	2ee\	.
=65	=65	=65	=65	=65	=65	=65	=65
1G	.	1r	.	1b	.	1dd	.
=66	=66	=66	=66	=66	=66	=66	=66
1C	-ster	1r	.	1cc	-ster	1cc	-ster
=67	=67	=67	=67	=67	=67	=67	=67
2C/	ni-	2g/	ni-	2cc\	ni-	2ee\	ni-
4C/	-si	4g/	-si	4ee\	-si	4gg\	-si
4C/	tu	4g/	tu	4ee\	tu	4gg\	tu
=68	=68	=68	=68	=68	=68	=68	=68
2D\	De-	2a/	De-	2dd\	De-	2ff\	De-
2C/	-us	2g/	-us	2cc\	-us	2ee\	-us
=69	=69	=69	=69	=69	=69	=69	=69
2GG/	no-	2f/	no-	2b\	no-	2dd\	no-
2C/	.	2e/	.	2cc\	.	2ee\	.
=70	=70	=70	=70	=70	=70	=70	=70
1GG	.	1d	.	1b	.	1dd	.
=71	=71	=71	=71	=71	=71	=71	=71
1C	-ster	1e	-ster	1cc	-ster	1cc	-ster
=72	=72	=72	=72	=72	=72	=72	=72
1r	.	1r	.	2cc\	ni-	2ee\	ni-
.	.	.	.	4cc\	-si	4ee\	-si
.	.	.	.	4cc\	tu	4ee\	tu
=73	=73	=73	=73	=73	=73	=73	=73
1r	.	1r	.	2a/	De-	2cc\	De-
.	.	.	.	2cc\	-us	2ee\	-us
=74	=74	=74	=74	=74	=74	=74	=74
1r	.	1r	.	2b\	no-	2dd\	no-
.	.	.	.	2a/	.	2cc\	.
=75	=75	=75	=75	=75	=75	=75	=75
1r	.	1r	.	1g#	.	1b	.
=76	=76	=76	=76	=76	=76	=76	=76
1r	.	1r	.	1a	-ster	1a	-ster
=77	=77	=77	=77	=77	=77	=77	=77
2D\	De-	2a/	De-	2dd\	De-	2dd\	De-
2C#/	-us	2a/	-us	2cc#\	-us	2ee\	-us
=78	=78	=78	=78	=78	=78	=78	=78
1D	no-	1a	no-	1dd	no-	1ff	no-
=79	=79	=79	=79	=79	=79	=79	=79
[1AA	-ster.	[1a	-ster.	[1cc#	-ster.	[1ee	-ster.
=80	=80	=80	=80	=80	=80	=80	=80
1AA]	.	1a]	.	1cc#]	.	1ee]	.
==:|!	==:|!	==:|!	==:|!	==:|!	==:|!	==:|!	==:|!
*-	*-	*-	*-	*-	*-	*-	*-
!!!GTL: Hymnbook L 1642
!!!EFL: 31/39
!!!YEM: Creative Commons CC/BY/NC/SA 4.0
!!!ENC: Marcin Konik
!!!END: 2015-02-21 
!!!EED: Marcin Konik
!!!EEV: 
!!!ONB: Translated from MusicXML and edited by Marcin Konik
!!!CharacterEncoding: utf-8
!!!RDF**kern: i=editorial accidental
!!muse2ps: z14jc180F
!!title: @{OTL}, @{GTL}: @{pag}, ed. @{ENC}
